build/img/logo.svg

<svg width="100%" height="100%" xmlns="http://www.w3.org/2000/svg" xmlns:xlink="http://www.w3.org/1999/xlink" xmlns:sketch="http://www.bohemiancoding.com/sketch/ns">
    <g id="Product-page" stroke="none" stroke-width="1" fill="none" fill-rule="evenodd" sketch:type="MSPage">
        <g id="search-page_full_button-copy-12" sketch:type="MSArtboardGroup" transform="translate(-30.000000, -32.000000)" fill="#FFFFFF">
            <g id="logo" sketch:type="MSLayerGroup" transform="translate(30.000000, 32.000000)">
                <path d="M56.3874051,32.3181839 C54.4110828,33.9837955 51.7788316,35 48.8888889,35 L48.487441,35 L48.487441,35 L44.4070142,30.9130131 L44.4070142,24.5426846 L44.4070142,24.5426846 C44.9340589,24.1852223 45.2804544,23.5807121 45.2804544,22.8951669 C45.2804544,21.7970687 44.3916987,20.9068842 43.2953631,20.9068842 C42.1990275,20.9068842 41.3102718,21.7970687 41.3102718,22.8951669 C41.3102718,23.5807121 41.6566673,24.1852223 42.183712,24.5426846 L42.183712,28.6861364 L42.183712,28.6861364 L39.2457769,25.743478 L39.2457769,19.4526808 C39.7728216,19.0952185 40.1192171,18.4907084 40.1192171,17.8051631 C40.1192171,16.7070649 39.2304614,15.8168804 38.1341258,15.8168804 C37.0377901,15.8168804 36.1490345,16.7070649 36.1490345,17.8051631 C36.1490345,18.4907084 36.49543,19.0952185 37.0224747,19.4526808 L37.0224747,19.4526808 L37.0224747,20.4059173 L35.116787,18.4971659 L35.116787,18.4971659 L35.116787,15.3396926 L35.1315793,15.3248766 L30.6414092,10.8274876 L30.6414092,10.8274876 C30.6603263,10.7172563 30.6701826,10.6039224 30.6701826,10.4882827 C30.6701826,9.3901845 29.7814269,8.5 28.6850913,8.5 C27.5887556,8.5 26.7,9.3901845 26.7,10.4882827 C26.7,11.5863809 27.5887556,12.4765654 28.6850913,12.4765654 C28.8274428,12.4765654 28.9662947,12.4615576 29.1001558,12.4330355 L32.8934848,16.2324631 L32.8934848,19.3957893 L32.8976755,19.3957893 L32.8934848,19.3999868 L32.8934848,19.4195684 L32.8934848,19.4195684 L37.0224747,23.5551964 L37.0224747,26.5536071 L37.0224747,26.5536071 L37.0224747,26.6658805 L45.3432168,35 L11.1111111,35 L11.1111111,35 C4.97461359,35 0,30.4181191 0,24.7660819 C0,19.9908496 3.55089909,15.9794992 8.35335047,14.84985 C9.26576124,8.88613265 14.8289549,4.29824561 21.5555556,4.29824561 C22.4596103,4.29824561 23.34265,4.3811182 24.1962084,4.53906541 L24.1962084,4.53906541 C27.0347863,1.74567872 31.0738343,0 35.5555556,0 C44.1466521,0 51.1111111,6.41463331 51.1111111,14.3274854 C51.1111111,14.4640191 51.1090376,14.6001067 51.1049181,14.735723 C56.1796486,15.6817316 60,19.8129831 60,24.7660819 C60,26.9834285 59.2343743,29.0360711 57.9333316,30.7119752 L49.7579446,22.5587286 L49.7579446,22.5587286 L49.7579446,19.3215657 L49.7579446,19.3215657 C50.239477,18.9584849 50.5508065,18.3813856 50.5508065,17.7315113 C50.5508065,16.6327132 49.6607919,15.7419614 48.5629032,15.7419614 C47.4650146,15.7419614 46.575,16.6327132 46.575,17.7315113 C46.575,18.4500229 46.9555651,19.0795751 47.5259642,19.4292789 L47.5259642,20.3327928 L44.4968479,17.31188 L44.4968479,14.0788973 C44.9857879,13.7164469 45.3027419,13.1348182 45.3027419,12.4790997 C45.3027419,11.3803016 44.4127273,10.4895498 43.3148387,10.4895498 C42.2169501,10.4895498 41.3269355,11.3803016 41.3269355,12.4790997 C41.3269355,13.1224924 41.6320857,13.6945545 42.1054404,14.0582266 L42.1054404,14.0582266 L42.1054404,14.9269488 L42.1054404,14.9269488 L38.1614442,10.9936337 L38.1614442,10.9936337 C38.203447,10.8326447 38.2258065,10.6637106 38.2258065,10.4895498 C38.2258065,9.3907518 37.3357919,8.5 36.2379032,8.5 C35.1400146,8.5 34.25,9.3907518 34.25,10.4895498 C34.25,11.5883479 35.1400146,12.4790997 36.2379032,12.4790997 C36.3197942,12.4790997 36.4005287,12.4741439 36.4798235,12.4645156 L56.3874051,32.3181839 L56.3874051,32.3181839 L56.3874051,32.3181839 Z M43.325,24.05 C44.0015488,24.05 44.55,23.5015488 44.55,22.825 C44.55,22.1484512 44.0015488,21.6 43.325,21.6 C42.6484512,21.6 42.1,22.1484512 42.1,22.825 C42.1,23.5015488 42.6484512,24.05 43.325,24.05 L43.325,24.05 Z M28.675,11.7 C29.3515488,11.7 29.9,11.1515488 29.9,10.475 C29.9,9.79845118 29.3515488,9.25 28.675,9.25 C27.9984512,9.25 27.45,9.79845118 27.45,10.475 C27.45,11.1515488 27.9984512,11.7 28.675,11.7 L28.675,11.7 Z M38.125,19 C38.8015488,19 39.35,18.4515488 39.35,17.775 C39.35,17.0984512 38.8015488,16.55 38.125,16.55 C37.4484512,16.55 36.9,17.0984512 36.9,17.775 C36.9,18.4515488 37.4484512,19 38.125,19 L38.125,19 Z M48.575,18.9 C49.2515488,18.9 49.8,18.3515488 49.8,17.675 C49.8,16.9984512 49.2515488,16.45 48.575,16.45 C47.8984512,16.45 47.35,16.9984512 47.35,17.675 C47.35,18.3515488 47.8984512,18.9 48.575,18.9 L48.575,18.9 Z M43.325,13.7 C44.0015488,13.7 44.55,13.1515488 44.55,12.475 C44.55,11.7984512 44.0015488,11.25 43.325,11.25 C42.6484512,11.25 42.1,11.7984512 42.1,12.475 C42.1,13.1515488 42.6484512,13.7 43.325,13.7 L43.325,13.7 Z M36.275,11.7 C36.9515488,11.7 37.5,11.1515488 37.5,10.475 C37.5,9.79845118 36.9515488,9.25 36.275,9.25 C35.5984512,9.25 35.05,9.79845118 35.05,10.475 C35.05,11.1515488 35.5984512,11.7 36.275,11.7 L36.275,11.7 Z" sketch:type="MSShapeGroup"></path>
                <path d="M85.9225,26 L85.251,26 C85.1716663,26 85.1065003,25.9787502 85.0555,25.93625 C85.0044997,25.8937498 84.9648335,25.8385003 84.9365,25.7705 L83.5255,22.277 L77.618,22.277 L76.207,25.7705 C76.1843332,25.8328336 76.144667,25.8866664 76.088,25.932 C76.0313331,25.9773336 75.9633337,26 75.884,26 L75.221,26 L80.1425,13.9725 L81.001,13.9725 L85.9225,26 Z M77.873,21.631 L83.262,21.631 L80.814,15.5535 C80.7289996,15.3551657 80.6468337,15.1171681 80.5675,14.8395 C80.5278331,14.9755007 80.4881669,15.1058327 80.4485,15.2305 C80.4088331,15.3551673 80.3691669,15.4656662 80.3295,15.562 L77.873,21.631 Z M90.7955,26 L89.92,26 L89.92,13.9725 L90.7955,13.9725 L90.7955,26 Z M102.188,15.4345 C102.137,15.5308338 102.063334,15.579 101.967,15.579 C101.893333,15.579 101.798417,15.5265839 101.68225,15.42175 C101.566083,15.3169161 101.408834,15.2007506 101.2105,15.07325 C101.012166,14.9457494 100.764251,14.8281672 100.46675,14.7205 C100.169249,14.6128328 99.8023355,14.559 99.366,14.559 C98.9296645,14.559 98.5457517,14.6213327 98.21425,14.746 C97.8827483,14.8706673 97.6050845,15.0406656 97.38125,15.256 C97.1574155,15.4713344 96.9874172,15.7206652 96.87125,16.004 C96.7550828,16.2873347 96.697,16.5848318 96.697,16.8965 C96.697,17.304502 96.7834158,17.6416653 96.95625,17.908 C97.1290842,18.1743347 97.3571653,18.4009991 97.6405,18.588 C97.9238347,18.7750009 98.2454149,18.9322494 98.60525,19.05975 C98.9650851,19.1872506 99.3348314,19.3133327 99.7145,19.438 C100.094169,19.5626673 100.463915,19.7000826 100.82375,19.85025 C101.183585,20.0004174 101.505165,20.1888322 101.7885,20.4155 C102.071835,20.6421678 102.299916,20.9212483 102.47275,21.25275 C102.645584,21.5842517 102.732,21.9964975 102.732,22.4895 C102.732,22.9938359 102.645584,23.4684144 102.47275,23.91325 C102.299916,24.3580856 102.049168,24.7448317 101.7205,25.0735 C101.391832,25.4021683 100.989502,25.6614157 100.5135,25.85125 C100.037498,26.0410843 99.4935031,26.136 98.8815,26.136 C98.0881627,26.136 97.4053362,25.9957514 96.833,25.71525 C96.2606638,25.4347486 95.7591688,25.0508358 95.3285,24.5635 L95.5665,24.1895 C95.6345003,24.1044996 95.7138329,24.062 95.8045,24.062 C95.8555003,24.062 95.9206663,24.0959997 96,24.164 C96.0793337,24.2320003 96.1756661,24.3155828 96.289,24.41475 C96.4023339,24.5139172 96.5383325,24.6215828 96.697,24.73775 C96.8556675,24.8539172 97.0398323,24.9615828 97.2495,25.06075 C97.4591677,25.1599172 97.6999986,25.2434997 97.972,25.3115 C98.2440014,25.3795003 98.5528316,25.4135 98.8985,25.4135 C99.3745024,25.4135 99.7994981,25.3412507 100.1735,25.19675 C100.547502,25.0522493 100.863415,24.8553346 101.12125,24.606 C101.379085,24.3566654 101.575999,24.060585 101.712,23.71775 C101.848001,23.374915 101.916,23.008002 101.916,22.617 C101.916,22.1919979 101.829584,21.8420847 101.65675,21.56725 C101.483916,21.2924153 101.255835,21.0629176 100.9725,20.87875 C100.689165,20.6945824 100.367585,20.5401673 100.00775,20.4155 C99.6479149,20.2908327 99.2781686,20.1690006 98.8985,20.05 C98.5188314,19.9309994 98.1490851,19.7978341 97.78925,19.6505 C97.4294149,19.5031659 97.1078348,19.3147511 96.8245,19.08525 C96.5411653,18.8557489 96.3130842,18.569585 96.14025,18.22675 C95.9674158,17.883915 95.881,17.4546692 95.881,16.939 C95.881,16.5366647 95.9574992,16.1485019 96.1105,15.7745 C96.2635008,15.4004981 96.4873319,15.0704181 96.782,14.78425 C97.0766681,14.4980819 97.4407478,14.2685842 97.87425,14.09575 C98.3077522,13.9229158 98.8021639,13.8365 99.3575,13.8365 C99.9808364,13.8365 100.540414,13.9356657 101.03625,14.134 C101.532086,14.3323343 101.983998,14.635498 102.392,15.0435 L102.188,15.4345 Z M108.319,25.2605 L114.014,25.2605 L114.014,26 L107.4435,26 L107.4435,13.9725 L108.319,13.9725 L108.319,25.2605 Z M125.2535,13.9725 L125.2535,14.695 L118.921,14.695 L118.921,19.557 L124.191,19.557 L124.191,20.2625 L118.921,20.2625 L118.921,25.2775 L125.2705,25.2775 L125.2535,26 L118.0455,26 L118.0455,13.9725 L125.2535,13.9725 Z M130.781,20.56 L130.781,26 L129.9055,26 L129.9055,13.9725 L132.9825,13.9725 C134.365174,13.9725 135.400747,14.2402473 136.08925,14.77575 C136.777753,15.3112527 137.122,16.0974948 137.122,17.1345 C137.122,17.5935023 137.041251,18.0128314 136.87975,18.3925 C136.718249,18.7721686 136.488751,19.1050819 136.19125,19.39125 C135.893749,19.6774181 135.533919,19.9125824 135.11175,20.09675 C134.689581,20.2809176 134.217836,20.401333 133.6965,20.458 C133.832501,20.5430004 133.954333,20.6563326 134.062,20.798 L138.2015,26 L137.4535,26 C137.357166,26 137.276417,25.9844168 137.21125,25.95325 C137.146083,25.9220832 137.085167,25.8640004 137.0285,25.779 L133.1695,20.9 C133.124166,20.8376664 133.077417,20.7838336 133.02925,20.7385 C132.981083,20.6931664 132.92725,20.6577501 132.86775,20.63225 C132.80825,20.6067499 132.737417,20.5883334 132.65525,20.577 C132.573083,20.5656666 132.472501,20.56 132.3535,20.56 L130.781,20.56 Z M130.781,19.914 L132.8635,19.914 C133.396169,19.914 133.873581,19.8502506 134.29575,19.72275 C134.717919,19.5952494 135.074915,19.4125012 135.36675,19.1745 C135.658585,18.9364988 135.880999,18.650335 136.034,18.316 C136.187001,17.981665 136.2635,17.6048354 136.2635,17.1855 C136.2635,16.3298291 135.984419,15.6951687 135.42625,15.2815 C134.868081,14.8678313 134.053505,14.661 132.9825,14.661 L130.781,14.661 L130.781,19.914 Z" id="AISLER" sketch:type="MSShapeGroup"></path>
            </g>
        </g>
    </g>
</svg>

<svg id="Layer_1" data-name="Layer 1" xmlns="http://www.w3.org/2000/svg" viewBox="0 0 60 35"><defs><style>.cls-1{fill:#fff;}</style></defs><title>logo</title><g id="Product-page"><g id="search-page_full_button-copy-12" data-name="search-page full button-copy-12"><g id="logo"><path class="cls-1" d="M56.39,32.32A11.61,11.61,0,0,1,48.89,35h-0.4l-4.08-4.09V24.54h0a2,2,0,1,0-2.22,0v4.14h0l-2.94-2.94V19.45a2,2,0,1,0-2.22,0h0v1L35.12,18.5h0V15.34h0l-4.49-4.5h0a2,2,0,1,0-1.54,1.61l3.79,3.8V19.4h0v0h0L37,23.56v3h0v0.11L45.34,35H11.11C5,35,0,30.42,0,24.77a10.43,10.43,0,0,1,8.35-9.92c0.91-6,6.48-10.55,13.2-10.55a14.51,14.51,0,0,1,2.64.24h0A16.16,16.16,0,0,1,35.56,0c8.59,0,15.56,6.41,15.56,14.33q0,0.2,0,.41c5.07,0.95,8.9,5.08,8.9,10a9.65,9.65,0,0,1-2.07,5.95l-8.18-8.15h0V19.32h0a2,2,0,1,0-2.23.11v0.9l-3-3V14.08a2,2,0,1,0-2.39,0h0v0.87h0L38.16,11h0a2,2,0,1,0-1.92,1.49h0.24L56.39,32.32h0ZM43.33,24a1.22,1.22,0,1,0-1.23-1.22A1.22,1.22,0,0,0,43.33,24h0ZM28.67,11.7a1.22,1.22,0,1,0-1.22-1.22,1.22,1.22,0,0,0,1.22,1.22h0ZM38.13,19a1.23,1.23,0,1,0-1.22-1.23A1.22,1.22,0,0,0,38.13,19h0Zm10.45-.1a1.22,1.22,0,1,0-1.23-1.23,1.22,1.22,0,0,0,1.23,1.23h0Zm-5.25-5.2a1.22,1.22,0,1,0-1.23-1.22,1.22,1.22,0,0,0,1.23,1.22h0Zm-7-2A1.22,1.22,0,1,0,35,10.48a1.22,1.22,0,0,0,1.23,1.22h0Z"/></g></g></g></svg>
